X: 34875
T: Robert Stubbert
R: reel
M: 4/4
K: Dmajor
|:FAAB AFED|FAAa bafa|gage fgfd|efed B3A|
FAAB AFED|FAAa bafa|gage fdec|dBAF D4:|
g|:~f2fg fedf|abag fgaf|~g2ga gABd|efed B3g|
~f2fg fedf|abag fgaf|~g2ga gfeg|fdec d3e:|

